Adwaita++/actions/16/media-album-track.svg

<svg height="16" viewBox="0 0 16 16" width="16" xmlns="http://www.w3.org/2000/svg">
  <path d="m1 1v14h6v-2h-3v-10h11v-2zm11 4v5.5c-.4182-.3148-.934-.5-1.5-.5-1.385 0-2.5 1.115-2.5 2.5s1.115 2.5 2.5 2.5 2.5-1.115 2.5-2.5v-5.5h2c0-1.108-.892-2-2-2z" fill="#474747"/>
</svg>

<svg xmlns="http://www.w3.org/2000/svg" width="16" height="16" viewBox="0 0 16 16">
 <defs>
  <style id="current-color-scheme" type="text/css">
   .ColorScheme-Text { color:#474747; } .ColorScheme-Highlight { color:#4285f4; }
  </style>
 </defs>
 <path style="fill:currentColor" class="ColorScheme-Text" d="M 1 1 L 1 15 L 7 15 L 7 13 L 4 13 L 4 3 L 15 3 L 15 1 L 1 1 z M 12 5 L 12 10.5 C 11.5818 10.1852 11.066 10 10.5 10 C 9.115 10 8 11.115 8 12.5 C 8 13.885 9.115 15 10.5 15 C 11.885 15 13 13.885 13 12.5 L 13 7 L 15 7 C 15 5.892 14.108 5 13 5 L 12 5 z"/>
</svg>
